X: 20532
T: McDonough's Lamentation
%R: air, waltz
B: James Oswald "The Caledonian Pocket Companion" v.2 p.53 #2
Z: 2019 John Chambers <jc:trillian.mit.edu>
M: 3/4
L: 1/8
K: G
"_Slow"(GA) |\
B2(AG)(GA) | G4 (GA) | B2 (B/c/d) fd | c4 (f>e) |\
d2(de)(fe) | (dc)(de)(fd) | c2(BA)(GF) | F4 (GA) |\
B2(AG) (ga) | g4 a2 |
b2a2ga | {g}f4 (d>c) |\
B2B2(Bc) | {B}A2A2(Bc) | d2G2(GA) | G4 :: (GF) |\
D2G2(GA) | G4 (GF) | D2B2(Bc) | B4 (TA>G) |\
F2f2(fg) |
(gf)(ed)(cB) | g2 f>d (c/d/f) | d4 (dc) |\
B4 b>B  | {B}A4 (Bc) | (dc)(d=e)(fg) | {g}^f4 (b/a/g/=f/) |\
d2d2(de) | {B}A2 A2 (B>c) | {c}d2 G2 (G>A) | G4 :|


